src/assets/images/icons/pen-tool.svg

<svg width="24" height="24" viewBox="0 0 24 24" fill="none" xmlns="http://www.w3.org/2000/svg">
<path d="M2 2L16.5 5.5L18 13L13 18L5.5 16.5L2 2ZM2 2L9.586 9.586M12 19L19 12L22 15L15 22L12 19ZM13 11C13 12.1046 12.1046 13 11 13C9.89543 13 9 12.1046 9 11C9 9.89543 9.89543 9 11 9C12.1046 9 13 9.89543 13 11Z" stroke="#181D27" stroke-width="2" stroke-linecap="round" stroke-linejoin="round"/>
</svg>

<svg xmlns="http://www.w3.org/2000/svg" fill="none" viewBox="0 0 24 24"><path stroke="#181D27" stroke-linecap="round" stroke-linejoin="round" stroke-width="2" d="m2 2 14.5 3.5L18 13l-5 5-7.5-1.5zm0 0 7.586 7.586M12 19l7-7 3 3-7 7zm1-8a2 2 0 1 1-4 0 2 2 0 0 1 4 0"/></svg>
